third_party/noto/noto_2/emoji_u1f4e9.svg

<svg enable-background="new 0 0 128 128" version="1.1" viewBox="0 0 128 128" xmlns="http://www.w3.org/2000/svg"><path d="m73.56 22.61v-17.95c0-0.38-0.3-0.68-0.68-0.68h-17.76c-0.38 0-0.68 0.3-0.68 0.68v17.95c0 0.38-0.31 0.68-0.68 0.68l-9.16-0.02c-0.58 0-0.9 0.67-0.52 1.12l19.4 19.52c0.27 0.33 0.77 0.33 1.05 0l19.4-19.52c0.37-0.44 0.05-1.12-0.52-1.12l-9.16 0.02c-0.39 0-0.69-0.31-0.69-0.68z" fill="#F44336"/><path d="m117.64 124.03h-107.28c-2.74 0-3.83-1.71-3.83-3.83v-68.97c0-2.12 1.71-3.83 3.83-3.83h107.27c2.12 0 3.83 1.71 3.83 3.83v68.96c0.01 2.12-1.71 3.84-3.82 3.84z" fill="#fff"/><path d="m117.47 51.4v68.62h-106.94v-68.62h106.94m0.17-4h-107.28c-2.12 0-3.83 1.71-3.83 3.83v68.96c0 2.12 1.09 3.83 3.83 3.83h107.27c2.12 0 3.83-1.71 3.83-3.83v-68.96c0.01-2.11-1.71-3.83-3.82-3.83z" fill="#6FBFF0"/><path d="m87.99 78.43 29.16-26.18c0.59-0.49 1.73-0.75 1.73-0.75s-1.34-1.45-3.09-0.09l-45.79 36.34c-1.76 1.4-3.87 2.12-6 2.19-2.13-0.07-4.24-0.79-6-2.19l-45.79-36.33c-1.75-1.37-3.09 0.09-3.09 0.09s1.14 0.27 1.73 0.75l28.82 25.87-29.57 41.4c-0.51 0.57 0.88 1.48 1.52 0.86l32.29-38.45 11.86 10.65c2.34 2.1 5.27 3.19 8.23 3.26 2.95-0.07 5.88-1.15 8.23-3.26l11.79-10.59 31.66 38.39c0.64 0.62 2.03-0.3 1.52-0.86l-29.21-41.1z" fill="#6FBFF0" stroke="#6FBFF0" stroke-miterlimit="10" stroke-width=".5"/></svg>

<?xml version="1.0" encoding="utf-8"?>
<!-- Generator: Adobe Illustrator 25.2.3, SVG Export Plug-In . SVG Version: 6.00 Build 0)  -->
<svg version="1.1" id="Layer_3_copy" xmlns="http://www.w3.org/2000/svg" xmlns:xlink="http://www.w3.org/1999/xlink" x="0px"
	 y="0px" viewBox="0 0 128 128" style="enable-background:new 0 0 128 128;" xml:space="preserve">
<g>
	<g>
		<path style="fill:#F44336;" d="M73.56,22.61V4.66c0-0.38-0.3-0.68-0.68-0.68H64h-8.88c-0.38,0-0.68,0.3-0.68,0.68v17.95
			c0,0.38-0.31,0.68-0.68,0.68l-9.16-0.02c-0.58,0-0.9,0.67-0.52,1.12l19.4,19.52c0.27,0.33,0.77,0.33,1.05,0l19.4-19.52
			c0.37-0.44,0.05-1.12-0.52-1.12l-9.16,0.02C73.86,23.29,73.56,22.98,73.56,22.61z"/>
		<g>
			<path style="fill:#FFFFFF;" d="M117.64,124.03H10.36c-2.74,0-3.83-1.71-3.83-3.83V51.23c0-2.12,1.71-3.83,3.83-3.83h107.27
				c2.12,0,3.83,1.71,3.83,3.83v68.96C121.47,122.31,119.75,124.03,117.64,124.03z"/>
			<g>
				<path style="fill:#6FBFF0;" d="M117.47,51.4v68.62H10.53V51.4H117.47 M117.64,47.4H10.36c-2.12,0-3.83,1.71-3.83,3.83v68.96
					c0,2.12,1.09,3.83,3.83,3.83h107.27c2.12,0,3.83-1.71,3.83-3.83V51.23C121.47,49.12,119.75,47.4,117.64,47.4L117.64,47.4z"/>
			</g>
			<g>
				<path style="fill:#6FBFF0;stroke:#6FBFF0;stroke-width:0.5;stroke-miterlimit:10;" d="M87.99,78.43l29.16-26.18
					c0.59-0.49,1.73-0.75,1.73-0.75s-1.34-1.45-3.09-0.09L70,87.75c-1.76,1.4-3.87,2.12-6,2.19c-2.13-0.07-4.24-0.79-6-2.19
					L12.21,51.42c-1.75-1.37-3.09,0.09-3.09,0.09s1.14,0.27,1.73,0.75l28.82,25.87l-29.57,41.4c-0.51,0.57,0.88,1.48,1.52,0.86
					l32.29-38.45l11.86,10.65c2.34,2.1,5.27,3.19,8.23,3.26c2.95-0.07,5.88-1.15,8.23-3.26L84.02,82l31.66,38.39
					c0.64,0.62,2.03-0.3,1.52-0.86L87.99,78.43z"/>
			</g>
		</g>
	</g>
</g>
</svg>
